icon/icon_weather/fog.svg

<?xml version="1.0" encoding="utf-8"?>
<!-- Generator: Adobe Illustrator 19.0.0, SVG Export Plug-In . SVG Version: 6.00 Build 0)  -->
<svg version="1.1" id="Layer_1" xmlns="http://www.w3.org/2000/svg" xmlns:xlink="http://www.w3.org/1999/xlink" x="0px" y="0px"
	 viewBox="0 0 512 512" style="enable-background:new 0 0 512 512;" xml:space="preserve">
<style type="text/css">
	.st0{fill:#F2F2F2;}
	.st1{fill:#F1F2F2;}
</style>
<g id="XMLID_18_">
	<g id="XMLID_46_">
		<g id="XMLID_49_">
			<path id="XMLID_52_" class="st0" d="M410.4,200.1c-10.4,0-20.7,1.8-30.5,5.4c-25.1-45.7-72.1-74-123.9-74
				c-51.7,0-98.8,28.2-123.9,74c-9.9-3.6-20.1-5.4-30.5-5.4c-49.8,0-90.3,40.5-90.3,90.3s40.5,90.3,90.3,90.3
				c11.8,0,23.4-2.3,34.2-6.8v-10c-10.7,5-22.3,7.7-34.2,7.7c-44.8,0-81.2-36.4-81.2-81.2s36.4-81.2,81.2-81.2
				c10.6,0,21,2.1,30.9,6.2l3.9,1.6l1.9-3.7c23-44.8,68.1-72.7,117.7-72.7s94.7,27.8,117.7,72.7l1.9,3.7l3.9-1.6
				c9.9-4.1,20.3-6.2,30.9-6.2c44.8,0,81.2,36.4,81.2,81.2s-36.4,81.2-81.2,81.2c-11.9,0-23.5-2.6-34.2-7.7v10
				c10.8,4.5,22.4,6.8,34.2,6.8c49.8,0,90.3-40.5,90.3-90.3S460.2,200.1,410.4,200.1z"/>
			<g id="XMLID_50_">
				<path id="XMLID_51_" class="st0" d="M410.4,194.6c-11,0.2-21.6,2-32,5.6c2.1,0.8,4.1,1.7,6.2,2.5c-26-46.5-75-76.7-128.6-76.7
					s-102.6,30.2-128.6,76.7c2.1-0.8,4.1-1.7,6.2-2.5C85.9,183.9,32.8,207,13.2,253.7C-5,297.2,12.4,348.9,53,372.9
					c25.6,15.1,56.8,17.2,84.3,6.3c2.3-0.9,4-2.7,4-5.3c0-3.3,0-6.7,0-10c0-4.5-4.6-6.4-8.2-4.7c-51.6,23.1-110.6-17.3-107-73.8
					c1.5-24.6,15.6-47.3,36.7-59.9c22.6-13.6,48.3-13,72.2-3.2c2.1,0.9,5.2-0.6,6.2-2.5C163.6,175.9,205.8,146,256,146
					s92.4,29.8,114.9,73.7c1,1.9,4.1,3.4,6.2,2.5c23.9-9.9,49.6-10.4,72.2,3.2c21.1,12.6,35.2,35.4,36.7,59.9
					c3.5,56.5-55.5,96.9-107,73.8c-3.7-1.6-8.2,0.2-8.2,4.7c0,3.3,0,6.7,0,10c0,2.6,1.7,4.4,4,5.3c43.6,17.2,94.2,0.3,118.2-40.1
					c22.4-37.9,15.4-87.8-16.5-118.1C458.5,204,435,194.9,410.4,194.6c-7-0.1-7.1,10.9,0,10.9c51.3,0.7,92.3,47.1,83.8,98.5
					c-8.9,54.1-66.3,84.3-116.5,64.6c1.3,1.8,2.7,3.5,4,5.3c0-3.3,0-6.7,0-10c-2.7,1.6-5.5,3.2-8.2,4.7c44.4,19.9,97.4,1,116.7-44.5
					c17.6-41.3-0.5-90.9-40.6-111.1c-24.1-12.2-50.8-11.6-75.5-1.4c2.1,0.8,4.1,1.7,6.2,2.5C356.1,166.9,309.9,135,256,135
					s-100.1,31.9-124.3,79.1c2.1-0.8,4.1-1.7,6.2-2.5C95,194,44.7,209.3,23.8,252.3c-19.7,40.5-4.5,90.6,34.4,113.2
					c24.8,14.4,54.4,14.8,80.3,3.2c-2.7-1.6-5.5-3.2-8.2-4.7c0,3.3,0,6.7,0,10c1.3-1.8,2.7-3.5,4-5.3c-54.8,21.6-116.7-17-117.6-77
					c-0.8-59.3,58.7-99.9,113.9-81c2.2,0.8,5.1-0.5,6.2-2.5C161,165,206.1,136.9,256,136.9s94.9,28,119.1,71.3
					c1.1,2,3.9,3.3,6.2,2.5c9.5-3.2,19-5,29.1-5.2C417.5,205.4,417.5,194.5,410.4,194.6z"/>
			</g>
		</g>
	</g>
</g>
<rect id="XMLID_505_" x="191.4" y="333.6" class="st1" width="129.2" height="16.1"/>
<rect id="XMLID_504_" x="191.4" y="295.2" class="st1" width="129.2" height="16.1"/>
<rect id="XMLID_511_" x="191.4" y="370" class="st1" width="129.2" height="16.1"/>
</svg>

<svg width="120" height="120" viewBox="0 0 512 512" fill="none" xmlns="http://www.w3.org/2000/svg">
<path d="M410.4 200.1C400 200.1 389.7 201.9 379.9 205.5C354.8 159.8 307.8 131.5 256 131.5C204.3 131.5 157.2 159.7 132.1 205.5C122.2 201.9 112 200.1 101.6 200.1C51.8 200.1 11.3 240.6 11.3 290.4C11.3 340.2 51.8 380.7 101.6 380.7C113.4 380.7 125 378.4 135.8 373.9V363.9C125.1 368.9 113.5 371.6 101.6 371.6C56.8 371.6 20.4 335.2 20.4 290.4C20.4 245.6 56.8 209.2 101.6 209.2C112.2 209.2 122.6 211.3 132.5 215.4L136.4 217L138.3 213.3C161.3 168.5 206.4 140.6 256 140.6C305.6 140.6 350.7 168.4 373.7 213.3L375.6 217L379.5 215.4C389.4 211.3 399.8 209.2 410.4 209.2C455.2 209.2 491.6 245.6 491.6 290.4C491.6 335.2 455.2 371.6 410.4 371.6C398.5 371.6 386.9 369 376.2 363.9V373.9C387 378.4 398.6 380.7 410.4 380.7C460.2 380.7 500.7 340.2 500.7 290.4C500.7 240.6 460.2 200.1 410.4 200.1Z" fill="#B0B5B5"/>
<path d="M410.4 194.6C399.4 194.8 388.8 196.6 378.4 200.2C380.5 201 382.5 201.9 384.6 202.7C358.6 156.2 309.6 126 256 126C202.4 126 153.4 156.2 127.4 202.7C129.5 201.9 131.5 201 133.6 200.2C85.9 183.9 32.8 207 13.2 253.7C-5 297.2 12.4 348.9 53 372.9C78.6 388 109.8 390.1 137.3 379.2C139.6 378.3 141.3 376.5 141.3 373.9C141.3 370.6 141.3 367.2 141.3 363.9C141.3 359.4 136.7 357.5 133.1 359.2C81.5 382.3 22.5 341.9 26.1 285.4C27.6 260.8 41.7 238.1 62.8 225.5C85.4 211.9 111.1 212.5 135 222.3C137.1 223.2 140.2 221.7 141.2 219.8C163.6 175.9 205.8 146 256 146C306.2 146 348.4 175.8 370.9 219.7C371.9 221.6 375 223.1 377.1 222.2C401 212.3 426.7 211.8 449.3 225.4C470.4 238 484.5 260.8 486 285.3C489.5 341.8 430.5 382.2 379 359.1C375.3 357.5 370.8 359.3 370.8 363.8C370.8 367.1 370.8 370.5 370.8 373.8C370.8 376.4 372.5 378.2 374.8 379.1C418.4 396.3 469 379.4 493 339C515.4 301.1 508.4 251.2 476.5 220.9C458.5 204 435 194.9 410.4 194.6C403.4 194.5 403.3 205.5 410.4 205.5C461.7 206.2 502.7 252.6 494.2 304C485.3 358.1 427.9 388.3 377.7 368.6C379 370.4 380.4 372.1 381.7 373.9C381.7 370.6 381.7 367.2 381.7 363.9C379 365.5 376.2 367.1 373.5 368.6C417.9 388.5 470.9 369.6 490.2 324.1C507.8 282.8 489.7 233.2 449.6 213C425.5 200.8 398.8 201.4 374.1 211.6C376.2 212.4 378.2 213.3 380.3 214.1C356.1 166.9 309.9 135 256 135C202.1 135 155.9 166.9 131.7 214.1C133.8 213.3 135.8 212.4 137.9 211.6C95 194 44.7 209.3 23.8 252.3C4.1 292.8 19.3 342.9 58.2 365.5C83 379.9 112.6 380.3 138.5 368.7C135.8 367.1 133 365.5 130.3 364C130.3 367.3 130.3 370.7 130.3 374C131.6 372.2 133 370.5 134.3 368.7C79.5 390.3 17.6 351.7 16.7 291.7C15.9 232.4 75.4 191.8 130.6 210.7C132.8 211.5 135.7 210.2 136.8 208.2C161 165 206.1 136.9 256 136.9C305.9 136.9 350.9 164.9 375.1 208.2C376.2 210.2 379 211.5 381.3 210.7C390.8 207.5 400.3 205.7 410.4 205.5C417.5 205.4 417.5 194.5 410.4 194.6Z" fill="#B0B5B5"/>
<path d="M320.6 333.6H191.4V349.7H320.6V333.6Z" fill="#B0B5B5"/>
<path d="M320.6 295.2H191.4V311.3H320.6V295.2Z" fill="#B0B5B5"/>
<path d="M320.6 370H191.4V386.1H320.6V370Z" fill="#B0B5B5"/>
</svg>
